X: 30935
T: Over The Straits Of Juan De Fuca
R: reel
M: 4/4
K: Bminor
|:FBBA B2Bc|dcde dcBA|FBBA B2Bc|defg a2f2|
FBBA B2Bc|dcde dcBA|f2fg fedB|1 FBBA B2BA:|2 FBBA B2Bd||
|:e2ef eBBB|eBfB g2fe|d4 dBAB|dedB d2Bd|
e2ef eBBB|eBfB g2fg|afff gfed|1 BAFA B2Bd:|2 BAFA B2BA||

